X:800
T:Ashokan Farewell
R:Waltz
C:Jay Ungar, 1983.
S:The Waltz Book
M:3/4
L:1/8
K:D
Ac|d3 cBA|F4EF|G3 FED|B,2D3B,|
A,2D2F2|A2d2f2|f3 f2|e4Ac|
d3 cBA|F4EF|G3 FED|B,2D3B,|
A,2D2F2|A2d2f2|A2c2e2|d4FG|
A3 FD2|d4A2|B3 cd2|AF3E2|
F3 ED2|B,4G,2|A,6|A4FE|
D2F2A2|=c6|B3 cd2|A2F2D2|
A,2D2F2|A2d2F2|E3 DC2|D4|]
